X:1
T:Maria stabat ad monumentum
T:Giovanni Battista Riccio
T:1644 - 1704
T:Joh. 20, 11-12: Maria (Magdalena) at the grave
T:Maria stabat ad monumentum
T:(C) Wim Looyestijn - 2015
T:(C) Wim Looyestijn - 2015
T:(C) Wim Looyestijn - 2015
T:(C) Wim Looyestijn - 2015
C:Giovanni Battista Riccio
Z:(C) Wim Looyestijn - 2015
%%score 1 2 3
L:1/8
Q:1/4=60
M:4/4
K:F
V:1 treble-8 nm="MusicXML Part"
V:2 treble-8 nm="MusicXML Part"
V:3 bass nm="MusicXML Part"
V:1
 F8 | G8 | A8 | B8 | A4 c4 | B4 G4 | A3 G ABcA | =B2 c4 B2 | c8 | B8 | B4 A4 | G2 F4 E2 | F8 | %13
w: Ma-|ri-|a|sta-|bat ad|mo- nu-|men- * * * * *||tum,|ad|mo- nu-|men- * *|tum|
 E6 D2 | E4 F4- | F4 E4 | F4 C4 | D6 E2 | F4 F4 | G2 E2 D3 D | C4 F2 F2 | D6 G2 | F4 F4 | %23
w: plo- *|||rans et|vi- *|* dit|du- os An- ge-|los, du- os|An- gel-|los in|
 E2 F2 G4 | A8 | c8 | c4 c2 A2 | B6 B2 | A8 | z8 | z8 | z8 | c4 A4 | G6 G2 | G4 B4 | A8 | =B8 | %37
w: al- * *|bis,|du-|os, du- os|An- ge-|los,||||du- os|An- ge-|los in|al-|bis|
 c4 A4 | B2 d2 c3 c | B4 A4 | =B6 B2 | c2 c4 c2 | c2 B2 A4 | A8 | d8 | c8 | B8- | B4 A4 | G8 | F8 | %50
w: stan- tes|et su- da- ri-|um quod|su- e-|rat su- per|ca- put Je-|su,|su-|per|ca-|* put|Je-|su.|
[M:3/1] c8 A8 B8 | c4 B4 A4 G4 F8 | A4 G4 A4 B4 c8 | A8 G16 | F16 z8 | z24 | z24 | z24 | %58
w: Al- le- lu-|ia, * * * *|al- * * * *|le- lu-|ia,||||
 F12 G4 A8 | B8 A4 A4 G8 | F16 z8 | z24 | F12 F4 G8 | A16 z8 | A12 A4 =B8 | c16 z8 | %66
w: al- le- lu-|ia, al- le- lu-|ia,||al- le- lu-|ia,|al- le- lu-|ia,|
[M:4/2] z8 d8- | d4 c4 B8 | A16 |] %69
w: al-|* le- lu-|is.|
V:2
 z8 | z8 | z8 | z8 | z8 | z8 | z8 | z8 | z8 | z8 | z8 | z8 | F8 | G8 | A8 | B8 | A4 c4 | B4 G4 | %18
w: ||||||||||||Ma-|ri-|a|sta-|bat ad|mo- nu-|
 A3 G ABcA | =B2 c4 B2 | c8 | B8 | B4 A4 | G2 F4 E2 | F8 | C6 D2 | E4 F4- | F4 E4 | F4 C4 | D6 E2 | %30
w: men- * * * * *||tum,|ad|mo- nu-|men- * *|tum|plo- *|||rans et|vi- *|
 F8 | G8 | A4 F4 | E6 E2 | E4 G4 | ^F2 G4 F2 | G8 | G4 F4 | F2 B2 A3 A | B4 ^F4 | G6 G2 | %41
w: |dit|du- os|An- gel-|los in|al- * *|bis|stan- tes|et su- da- ri-|um quod|su- e-|
 G2 A4 A2 | A2 G2 ^F4 | ^F8 | B8 | F8- | F4 G4- | G4 F4- | F4 E4 | F8 |[M:3/1] z24 | z24 | z24 | %53
w: rat su- per|ca- put Je-|su,|su-|per|* ca-|* put|* Je-|su.||||
 z24 | c8 A8 B8 | c4 B4 A4 G4 F8 | A4 G4 A4 B4 c8 | A8 G16 | F16 z8 | z24 | F12 G4 A8 | %61
w: |Al- le- lu-|ia, * * * *|al- * * * *|le- lu-|ia,||al- le- lu-|
 B8 A4 A4 G8 | F16 z8 | F12 F4 G8 | A16 z8 | A12 A4 =B8 |[M:4/2] c8 F8- | F4 F4 F8 | F16 |] %69
w: ia, al- le- lu-|ia,|al- le- lu-|ia,|al- le- lu-|ia, al-|* le- lu-|is.|
V:3
 F,,8 | C,8 | F,,8 | B,,8 | F,,4 C,4 | _E,4 G,4 | F,4 F,,4 | G,,8 | C,8 | G,,8 | B,,4 F,,4 | %11
w: |||||||#||||
 C,2 A,,2 G,,4 | F,,8 | C,6 B,,2 | A,,4 A,,4 | G,,8 | F,,4 C,4 | G,,8 | F,,4 F,4 | G,2 E,2 D,4 | %20
w: * 6 *||* 6|* 6|||||# 6 *|
 C,4 A,,4 | G,,8 | B,,4 F,,4 | C,8 | F,,4 F,,4- | F,,2 G,,2 A,,2 B,,2 | C,4 A,,4 | G,,8 | F,,8 | %29
w: * 6||||||* 6|||
 B,,2 A,,2 B,,2 C,2 | D,2 C,2 B,,2 A,,2 | G,,8 | F,,4 F,,4 | C,6 C,2 | C,4 G,,4 | D,8 | G,,8 | %37
w: |||||||#|
 C,4 F,,4 | B,,2 B,,2 F,,3 F,, | B,,4 D,4 | G,,6 G,,2 | C,2 F,,4 F,,2 | F,,2 G,,2 D,4 | D,8 | %44
w: ||* #|# #||* * #|#|
 B,,8 | A,,8 | B,,4 B,,4 | C,8- | C,8 | F,,8 |[M:3/1] F,,8 F,,8 B,,8 | F,,24 | F,,24 | F,,8 C,16 | %54
w: |6|* 6||||||||
 F,,8 F,,8 B,,8 | F,,24 | F,,24 | F,,8 C,16 | F,,16 F,,8 | B,,8 F,,8 C,8 | F,,16 F,,8 | %61
w: |||||||
 B,,8 F,,8 C,8 | F,,12 F,,4 C,8 | F,,12 F,,4 C,8 | F,,12 F,,4 G,,8 | F,,12 F,,4 G,,8 | %66
w: |||* * #|* * #|
[M:4/2] C,8 B,,8- | B,,4 A,,4 B,,8 | F,,16 |] %69
w: |* 6 *||

